share/icons/Flat-Remix-Blue-Dark/mimetypes/scalable/application-script-blank.svg

<svg xmlns="http://www.w3.org/2000/svg" xmlns:xlink="http://www.w3.org/1999/xlink" width="36pt" height="36pt" version="1.1" viewBox="0 0 36 36"> <defs> <clipPath id="clip1"> <path d="M 20 2 L 31 2 L 31 13 L 20 13 Z M 20 2"/> </clipPath> <clipPath id="clip2"> <path d="M 20.515625 2.625 L 30.328125 12.4375 L 22.023438 12.4375 C 21.292969 12.4375 20.515625 11.660156 20.515625 10.929688 Z M 20.515625 2.625"/> </clipPath> <image id="image6" width="36" height="36" xlink:href="data:image/png;base64,iVBORw0KGgoAAAANSUhEUgAAACQAAAAkCAYAAADhAJiYAAAABmJLR0QA/wD/AP+gvaeTAAAAmklEQVRYhe3T0QqCQBBG4aOtYEoUvf9Lildltl00C4tkbBeTIP+BAUEYP1YW1Pcqh53B9kbgaVPcwQF0tAmGSrMZ6AKcDQXw+AUVHEAtcAUaewYYgYmC3+cBCkAPnDJQMcoDVNnebgEqQnmAclTz4d0I3P4JStc9AjXvk4qLWQV53LLeEOl05gw4A3dgcPiuUkoppZRSSqk99gLWvSJpuDnlsAAAAABJRU5ErkJggg=="/> </defs> <g> <path style="fill:rgb(90.196%,90.196%,90.196%)" d="M 7.347656 3.152344 C 6.675781 3.152344 6.042969 3.785156 6.042969 4.457031 L 6.042969 31.847656 C 6.042969 32.480469 6.714844 33.152344 7.347656 33.152344 L 28.21875 33.152344 C 28.851562 33.152344 29.523438 32.480469 29.523438 31.847656 L 29.523438 11.632812 L 21.042969 3.152344 Z M 7.347656 3.152344"/> <g clip-path="url(#clip1)"> <g clip-path="url(#clip2)"> <use xlink:href="#image6"/> </g> </g> <path style="fill:rgb(100.000%,100.000%,100.000%)" d="M 21.042969 3.152344 L 29.523438 11.632812 L 22.347656 11.632812 C 21.714844 11.632812 21.042969 10.960938 21.042969 10.328125 Z M 21.042969 3.152344"/> <path style="fill:rgb(0%,0%,0%);fill-opacity:0.611765" d="M 14.984375 22.558594 C 14.984375 22.957031 15.085938 23.242188 15.292969 23.421875 C 15.5 23.601562 15.808594 23.695312 16.207031 23.703125 L 16.207031 24.519531 C 15.535156 24.511719 15.011719 24.34375 14.644531 24.011719 C 14.273438 23.683594 14.089844 23.214844 14.089844 22.617188 L 14.089844 20.847656 C 14.089844 20.441406 13.980469 20.152344 13.753906 19.980469 C 13.53125 19.804688 13.207031 19.71875 12.78125 19.71875 L 12.78125 18.894531 C 13.242188 18.886719 13.578125 18.792969 13.78125 18.613281 C 13.988281 18.433594 14.089844 18.160156 14.089844 17.785156 L 14.089844 15.996094 C 14.089844 15.394531 14.28125 14.925781 14.664062 14.589844 C 15.046875 14.253906 15.5625 14.085938 16.207031 14.085938 L 16.207031 14.898438 C 15.390625 14.921875 14.984375 15.308594 14.984375 16.0625 L 14.984375 17.785156 C 14.984375 18.621094 14.589844 19.117188 13.796875 19.269531 L 13.796875 19.339844 C 14.589844 19.492188 14.984375 19.984375 14.984375 20.824219 L 14.984375 22.558594"/> <path style="fill:rgb(0%,0%,0%);fill-opacity:0.611765" d="M 22.191406 19.269531 C 21.398438 19.117188 21.003906 18.621094 21.003906 17.785156 L 21.003906 16.0625 C 21.003906 15.308594 20.601562 14.921875 19.796875 14.898438 L 19.796875 14.085938 C 20.449219 14.085938 20.960938 14.257812 21.335938 14.59375 C 21.710938 14.933594 21.898438 15.402344 21.898438 15.996094 L 21.898438 17.785156 C 21.898438 18.164062 22.003906 18.441406 22.210938 18.621094 C 22.421875 18.796875 22.757812 18.886719 23.21875 18.894531 L 23.21875 19.71875 C 22.785156 19.71875 22.457031 19.804688 22.234375 19.980469 C 22.011719 20.152344 21.898438 20.441406 21.898438 20.847656 L 21.898438 22.617188 C 21.898438 23.210938 21.714844 23.675781 21.351562 24.007812 C 20.988281 24.34375 20.472656 24.511719 19.796875 24.519531 L 19.796875 23.703125 C 20.191406 23.695312 20.492188 23.601562 20.695312 23.421875 C 20.902344 23.242188 21.003906 22.957031 21.003906 22.558594 L 21.003906 20.824219 C 21.003906 20.378906 21.101562 20.039062 21.296875 19.804688 C 21.492188 19.574219 21.789062 19.417969 22.191406 19.339844 L 22.191406 19.269531"/> </g> </svg>

<svg width="36pt" height="36pt" version="1.1" viewBox="0 0 36 36" xmlns="http://www.w3.org/2000/svg"><defs><filter id="a" x="-.192" y="-.192" width="1.384" height="1.384" color-interpolation-filters="sRGB"><feGaussianBlur stdDeviation="0.67843748"/></filter></defs><path d="m7.3477 3.9022c-0.67188 0-1.3047 0.63281-1.3047 1.3047v27.391c0 0.63281 0.67188 1.3047 1.3047 1.3047h20.871c0.63281 0 1.3047-0.67188 1.3047-1.3047v-20.215l-8.4805-8.4805z" opacity=".3"/><path d="m7.3477 3.1523c-0.67188 0-1.3047 0.63281-1.3047 1.3047v27.391c0 0.63281 0.67188 1.3047 1.3047 1.3047h20.871c0.63281 0 1.3047-0.67188 1.3047-1.3047v-20.215l-8.4805-8.4805z" fill="#e5e5e5"/><path d="m20.668 3.5272 8.4805 8.4805h-7.1758c-0.63281 0-1.3047-0.67187-1.3047-1.3047z" filter="url(#a)" opacity=".2"/><path d="m21.043 3.1523 8.4805 8.4805h-7.1758c-0.63281 0-1.3047-0.67187-1.3047-1.3047z" fill="#fff"/><path d="m14.984 22.559c0 0.39844 0.10156 0.68359 0.30859 0.86328s0.51562 0.27344 0.91406 0.28125v0.81641c-0.67188-0.007812-1.1953-0.17578-1.5625-0.50781-0.37109-0.32812-0.55469-0.79688-0.55469-1.3945v-1.7695c0-0.40625-0.10938-0.69531-0.33594-0.86719-0.22266-0.17578-0.54688-0.26172-0.97266-0.26172v-0.82422c0.46094-0.007812 0.79688-0.10156 1-0.28125 0.20703-0.17969 0.30859-0.45312 0.30859-0.82812v-1.7891c0-0.60156 0.19141-1.0703 0.57422-1.4062 0.38281-0.33594 0.89844-0.50391 1.543-0.50391v0.8125c-0.81641 0.023437-1.2227 0.41016-1.2227 1.1641v1.7227c0 0.83594-0.39453 1.332-1.1875 1.4844v0.070313c0.79297 0.15234 1.1875 0.64453 1.1875 1.4844v1.7344" fill-opacity=".61176"/><path d="m22.191 19.27c-0.79297-0.15234-1.1875-0.64844-1.1875-1.4844v-1.7227c0-0.75391-0.40234-1.1406-1.207-1.1641v-0.8125c0.65234 0 1.1641 0.17187 1.5391 0.50781 0.375 0.33984 0.5625 0.80859 0.5625 1.4023v1.7891c0 0.37891 0.10547 0.65625 0.3125 0.83594 0.21094 0.17578 0.54687 0.26562 1.0078 0.27344v0.82422c-0.43359 0-0.76172 0.085938-0.98438 0.26172-0.22266 0.17188-0.33594 0.46094-0.33594 0.86719v1.7695c0 0.59375-0.18359 1.0586-0.54688 1.3906-0.36328 0.33594-0.87891 0.50391-1.5547 0.51172v-0.81641c0.39453-0.007813 0.69531-0.10156 0.89844-0.28125 0.20703-0.17969 0.30859-0.46484 0.30859-0.86328v-1.7344c0-0.44531 0.097656-0.78516 0.29297-1.0195 0.19531-0.23047 0.49219-0.38672 0.89453-0.46484v-0.070313" fill-opacity=".61176"/></svg>
